X:1
T:Someday My Prince Will Come
C:Frank Churchill
L:1/4
M:3/4
I:linebreak $
K:Bb
"Bb" F3 |"D7" B2 ^F |"Eb" A2 G |"G7" G3 |$"Cm" G3 |"G7" e2 =B |"C7" d2 c |"F7" c d eOx///||$
"Dm" f f f |"Dbo" a a a |"Cm" f3 |"F7" z d e |$"Dm" f f f |"Dbo" a a a |"Cm" f3 |
"F7""_D.C. al Coda" z3 ||$Ox/"Fm" f =e f |"Bb7" c'2 b |"Eb" c =B c |"Eo" a2 g |$"Dm" f2"G7" e |
"Cm" d2"F7" c |"Bb" B3 | z3 |]

